X: 19
T: Farewell to Heb
C:Phil Cunningham
M:2/4
L:1/8
K:D
Bd/>B/ A/<F/B| B/>A/B/<d/ fe/<d/| ef/>e/ d/<B/e|
d/>B/A/<F/ EF/<A/| Bd/>B/ A/<F/B| B/>A/B/<d/ fe/<d/|
ef/>e/ d/<B/e|d/>B/A/<F/ E E :|
||EF/<A/ BB/>d/| B/>A/B/<d/ fe/>d/| ef/<a/ bf/>b/|
a/>f/e/<d/ fe/<f/| EF/<A/ BB/>d/| B/>A/B/<d/ fe/>d/|
ef/>e/ d/<B/e| d/>B/A/<F/ EE :|

%%sep 2 1 500

